svg/transport/pinwheel_2_line.svg

<?xml version="1.0" encoding="UTF-8"?>
<svg width="24px" height="24px" viewBox="0 0 24 24" version="1.1" xmlns="http://www.w3.org/2000/svg" xmlns:xlink="http://www.w3.org/1999/xlink">
    <title>pinwheel_2_line</title>
    <g id="Icon" stroke="none" stroke-width="1" fill="none" fill-rule="evenodd">
        <g id="Transport" transform="translate(-864.000000, -192.000000)">
            <g id="pinwheel_2_line" transform="translate(864.000000, 192.000000)">
                <path d="M24,0 L24,24 L0,24 L0,0 L24,0 Z M12.5935,23.2578 L12.5819,23.2595 L12.5109,23.295 L12.4919,23.2987 L12.4767,23.295 L12.4057,23.2595 C12.3958,23.2564 12.387,23.259 12.3821,23.2649 L12.378,23.2758 L12.3609,23.7031 L12.3659,23.7235 L12.3769,23.7357 L12.4805,23.8097 L12.4953,23.8136 L12.5071,23.8097 L12.6107,23.7357 L12.6233,23.7197 L12.6267,23.7031 L12.6096,23.2758 C12.6076,23.2657 12.601,23.2593 12.5935,23.2578 Z M12.8584,23.1453 L12.8445,23.1473 L12.6598,23.2397 L12.6499,23.2499 L12.6472,23.2611 L12.6651,23.6906 L12.6699,23.7034 L12.6784,23.7105 L12.8793,23.8032 C12.8914,23.8069 12.9022,23.803 12.9078,23.7952 L12.9118,23.7812 L12.8777,23.1665 C12.8753,23.1546 12.8674,23.147 12.8584,23.1453 Z M12.143,23.1473 C12.1332,23.1424 12.1222,23.1453 12.1156,23.1526 L12.1099,23.1665 L12.0758,23.7812 C12.0751,23.7927 12.0828,23.8019 12.0926,23.8046 L12.1083,23.8032 L12.3092,23.7105 L12.3186,23.7024 L12.3225,23.6906 L12.3404,23.2611 L12.3372,23.2485 L12.3278,23.2397 L12.143,23.1473 Z" id="MingCute" fill-rule="nonzero"></path>
                <path d="M12,2 C12.51285,2 12.9355092,2.38604429 12.9932725,2.88337975 L13,3 L13,7.25716 C13.9509,6.47182 15.1704,6 16.5,6 C19.4635122,6 21.8795407,8.34377632 21.9956329,11.2787926 L22,11.5 L22,12 C22,12.51285 21.613973,12.9355092 21.1166239,12.9932725 L21,13 L16.7428,13 C17.5282,13.9509 18,15.1704 18,16.5 C18,19.4635122 15.6562522,21.8795407 12.7212095,21.9956329 L12.5,22 L12,22 C11.48715,22 11.0644908,21.613973 11.0067275,21.1166239 L11,21 L11,16.7428 C10.0491,17.5282 8.82963,18 7.5,18 C4.53651707,18 2.12046068,15.6562522 2.0043672,12.7212095 L2,12.5 L2,12 C2,11.48715 2.38604429,11.0644908 2.88337975,11.0067275 L3,11 L7.25716,11 C6.47182,10.0491 6,8.82963 6,7.5 C6,4.53651707 8.34377632,2.12046068 11.2787926,2.0043672 L11.5,2 L12,2 Z M13,13.0354 L13,19.9646 C14.6961,19.7219 16,18.2632 16,16.5 C16,14.7368 14.6961,13.2781 13,13.0354 Z M10.9646,13 L4.03544,13 C4.27806,14.6961 5.73676,16 7.5,16 C9.26324,16 10.7219,14.6961 10.9646,13 Z M16.5,8 C14.7368,8 13.2781,9.30385 13.0354,11 L19.9646,11 C19.7219,9.30385 18.2632,8 16.5,8 Z M11,4.03544 C9.30385,4.27806 8,5.73676 8,7.5 C8,9.20026714 9.21238093,10.6173215 10.8198123,10.933985 L11,10.9646 L11,4.03544 Z" id="形状" fill="#09244B"></path>
            </g>
        </g>
    </g>
</svg>

<svg xmlns="http://www.w3.org/2000/svg" width="24" height="24"><g fill="none" fill-rule="evenodd"><path d="M24 0v24H0V0h24ZM12.594 23.258l-.012.002-.071.035-.02.004-.014-.004-.071-.036c-.01-.003-.019 0-.024.006l-.004.01-.017.428.005.02.01.013.104.074.015.004.012-.004.104-.074.012-.016.004-.017-.017-.427c-.002-.01-.009-.017-.016-.018Zm.264-.113-.014.002-.184.093-.01.01-.003.011.018.43.005.012.008.008.201.092c.012.004.023 0 .029-.008l.004-.014-.034-.614c-.003-.012-.01-.02-.02-.022Zm-.715.002a.023.023 0 0 0-.027.006l-.006.014-.034.614c0 .012.007.02.017.024l.015-.002.201-.093.01-.008.003-.011.018-.43-.003-.012-.01-.01-.184-.092Z"/><path fill="#09244B" d="M12 2a1 1 0 0 1 .993.883L13 3v4.257a5.5 5.5 0 0 1 8.996 4.022L22 11.5v.5a1 1 0 0 1-.883.993L21 13h-4.257a5.5 5.5 0 0 1-4.022 8.996L12.5 22H12a1 1 0 0 1-.993-.883L11 21v-4.257a5.5 5.5 0 0 1-8.996-4.022L2 12.5V12a1 1 0 0 1 .883-.993L3 11h4.257a5.5 5.5 0 0 1 4.022-8.996L11.5 2h.5Zm1 11.035v6.93a3.501 3.501 0 0 0 0-6.93ZM10.965 13h-6.93a3.5 3.5 0 0 0 6.93 0ZM16.5 8a3.5 3.5 0 0 0-3.465 3h6.93A3.5 3.5 0 0 0 16.5 8ZM11 4.035a3.5 3.5 0 0 0-.18 6.899l.18.03V4.036Z"/></g></svg>
